X:1
T:Penitence, 65.65 D
T:Penitence, 65.65 D
T:Spencer Lane, 1874
T:Public Domain Courtesy of the Cyber Hymnal™
C:Spencer Lane, 1874
Z:Public Domain
Z:Courtesy of the Cyber Hymnal™
%%score 1 ( 2 3 )
L:1/8
Q:1/4=112
M:4/4
K:C
V:1 treble 
V:2 bass 
V:3 bass 
V:1
 [CE]2 [CE]2 [CF]2 [CE]2 | ([^DA]4 [EG]4) | [Ec]2 [CE]2 [B,G]2 [B,D]2 | [CE]8 | %4
 [CE]2 [CE]2 [CF]2 [CE]2 | [EB]4 [EG]4 | [^D^F]2 [DB]2 [DA]2 [DF]2 | ([EG]4 [FG]4) | %8
 [FG]2 [FB]2 [FA]2 [FG]2 | ([Ec]2 [CE]2) [EG]4 | [FG]2 [FB]2 [FA]2 [FG]2 | ([Ec]2 [^DA]2 [EG]4) | %12
 [EG]2 [Ge]2 [Gd]2 [Gc]2 | [Fc]4 [FA]4 | [EG]2 [DG]2 [EG]2 [FG]2 | [EG]8 |] %16
V:2
 [C,G,]2 [C,G,]2 [C,A,]2 [C,G,]2 | ([C,^F,]4 [C,G,]4) | [C,G,]2 [C,G,]2 [G,,G,]2 [G,,G,]2 | %3
 [C,G,]8 | [C,G,]2 [C,G,]2 [C,A,]2 [C,G,]2 | [B,,G,]4 [B,,B,]4 | %6
 [B,,B,]2 [B,,B,]2 [B,,B,]2 [B,,B,]2 | ([E,B,]4 [G,B,]4) | [G,B,]2 [G,D]2 [G,C]2 [G,B,]2 | %9
 [C,G,]4 [C,C]4 | [G,B,]2 [G,D]2 [G,C]2 [G,B,]2 | (G,2 ^F,2 [C,G,]4) | %12
 [C,C]2 [C,C]2 [D,B,]2 [E,^A,]2 | [F,A,]4 [F,C]4 | [G,C]2 [G,B,]2 [G,C]2 [G,D]2 | [C,C]8 |] %16
V:3
 x8 | x8 | x8 | x8 | x8 | x8 | x8 | x8 | x8 | x8 | x8 | C,4 x4 | x8 | x8 | x8 | x8 |] %16

